findly-builder/apps/searchassist/src/assets/icons/search-interface/dummy-large.svg

<svg width="43" height="37" viewBox="0 0 43 37" fill="none" xmlns="http://www.w3.org/2000/svg">
<path fill-rule="evenodd" clip-rule="evenodd" d="M5.34375 0.875C2.92261 0.875 0.9375 2.86011 0.9375 5.28125V31.7188C0.9375 34.1399 2.92261 36.125 5.34375 36.125H37.6562C40.0774 36.125 42.0625 34.1399 42.0625 31.7188V5.28125C42.0625 2.86011 40.0774 0.875 37.6562 0.875H5.34375ZM5.34375 3.8125H37.6562C38.4824 3.8125 39.125 4.45508 39.125 5.28125V26.624L29.2071 16.1533C29.0056 15.9405 28.665 15.946 28.4703 16.1652L23.095 22.2178L14.6229 13.2842C14.4213 13.0716 14.0809 13.0772 13.8863 13.2963L3.875 24.5701V5.28125C3.875 4.45508 4.51758 3.8125 5.34375 3.8125ZM30.3125 6.75C28.6946 6.75 27.375 8.06958 27.375 9.6875C27.375 11.3054 28.6946 12.625 30.3125 12.625C31.9304 12.625 33.25 11.3054 33.25 9.6875C33.25 8.06958 31.9304 6.75 30.3125 6.75ZM14.3169 17.2263L29.4519 33.1875H5.34375C4.51758 33.1875 3.875 32.5449 3.875 31.7188V28.9993L14.3169 17.2263ZM28.8896 20.1064L39.125 30.8926V31.7188C39.125 32.5449 38.4824 33.1875 37.6562 33.1875H33.491L25.126 24.3521L28.8896 20.1064Z" fill="#E4E5E7"/>
</svg>

<svg width="43" height="37" fill="none" xmlns="http://www.w3.org/2000/svg"><path fill-rule="evenodd" clip-rule="evenodd" d="M5.344.875A4.422 4.422 0 0 0 .937 5.281V31.72a4.422 4.422 0 0 0 4.407 4.406h32.312a4.422 4.422 0 0 0 4.407-4.406V5.28A4.422 4.422 0 0 0 37.656.875H5.344Zm0 2.938h32.312a1.45 1.45 0 0 1 1.469 1.468v21.343l-9.918-10.47a.5.5 0 0 0-.737.011l-5.375 6.053-8.472-8.934a.5.5 0 0 0-.737.012L3.875 24.57V5.281a1.45 1.45 0 0 1 1.469-1.468ZM30.312 6.75a2.943 2.943 0 0 0-2.937 2.938 2.943 2.943 0 0 0 2.938 2.937 2.943 2.943 0 0 0 2.937-2.938 2.943 2.943 0 0 0-2.938-2.937ZM14.318 17.226l15.135 15.962H5.344a1.45 1.45 0 0 1-1.469-1.47V29l10.442-11.773Zm14.573 2.88 10.235 10.787v.826a1.45 1.45 0 0 1-1.469 1.468h-4.165l-8.365-8.835 3.764-4.246Z" fill="#E4E5E7"/></svg>
